content/sets-and-functions/images/three-element-squaring.svg

<svg height="86.734pt" viewBox="0 0 140.066 86.734" width="140.066pt" xmlns="http://www.w3.org/2000/svg" xmlns:xlink="http://www.w3.org/1999/xlink"><clipPath id="a"><path d="m0 0h44v86.734375h-44zm0 0"/></clipPath><clipPath id="b"><path d="m96 0h44v86.734375h-44zm0 0"/></clipPath><symbol id="c" overflow="visible"><path d="m1.78125-1.140625c-.390625.65625-.78125.796875-1.21875.828125-.125.015625-.21875.015625-.21875.203125 0 .0625.0625.109375.140625.109375.265625 0 .578125-.03125.84375-.03125.34375 0 .6875.03125 1 .03125.0625 0 .1875 0 .1875-.1875 0-.109375-.078125-.125-.15625-.125-.21875-.015625-.46875-.09375-.46875-.34375 0-.125.0625-.234375.140625-.375l.765625-1.265625h2.5c.015625.203125.15625 1.5625.15625 1.65625 0 .296875-.515625.328125-.71875.328125-.140625 0-.234375 0-.234375.203125 0 .109375.109375.109375.140625.109375.40625 0 .828125-.03125 1.234375-.03125.25 0 .890625.03125 1.140625.03125.046875 0 .171875 0 .171875-.203125 0-.109375-.09375-.109375-.234375-.109375-.609375 0-.609375-.0625-.640625-.359375l-.609375-6.21875c-.015625-.203125-.015625-.25-.1875-.25-.15625 0-.203125.078125-.265625.171875zm1.203125-1.46875 1.953125-3.296875.328125 3.296875zm0 0"/></symbol><symbol id="d" overflow="visible"><path d="m1.59375-.78125c-.09375.390625-.125.46875-.90625.46875-.171875 0-.265625 0-.265625.203125 0 .109375.09375.109375.265625.109375h3.5625c1.578125 0 2.75-1.171875 2.75-2.15625 0-.71875-.578125-1.296875-1.546875-1.40625 1.03125-.1875 2.078125-.921875 2.078125-1.875 0-.734375-.65625-1.375-1.84375-1.375h-3.359375c-.1875 0-.28125 0-.28125.203125 0 .109375.09375.109375.28125.109375.015625 0 .203125 0 .375.015625.171875.03125.265625.03125.265625.171875 0 .03125-.015625.0625-.03125.1875zm1.5-2.875.625-2.46875c.09375-.34375.109375-.375.53125-.375h1.296875c.875 0 1.078125.59375 1.078125 1.03125 0 .875-.859375 1.8125-2.0625 1.8125zm-.4375 3.34375c-.140625 0-.15625 0-.21875 0-.109375-.015625-.140625-.03125-.140625-.109375 0-.03125 0-.046875.0625-.21875l.6875-2.78125h1.875c.953125 0 1.15625.734375 1.15625 1.15625 0 .984375-.890625 1.953125-2.078125 1.953125zm0 0"/></symbol><symbol id="e" overflow="visible"><path d="m3.65625-3.984375h.859375c.203125 0 .296875 0 .296875-.203125 0-.109375-.09375-.109375-.265625-.109375h-.828125l.203125-1.140625c.046875-.203125.1875-.90625.25-1.03125.078125-.1875.25-.34375.46875-.34375.03125 0 .296875 0 .484375.1875-.4375.03125-.546875.390625-.546875.53125 0 .234375.1875.359375.375.359375.265625 0 .546875-.234375.546875-.609375 0-.453125-.453125-.6875-.859375-.6875-.34375 0-.96875.1875-1.265625 1.171875-.0625.203125-.09375.3125-.328125 1.5625h-.6875c-.203125 0-.3125 0-.3125.1875 0 .125.09375.125.28125.125h.65625l-.734375 3.9375c-.1875.96875-.359375 1.875-.875 1.875-.046875 0-.28125 0-.484375-.1875.46875-.03125.5625-.390625.5625-.53125 0-.234375-.1875-.359375-.375-.359375-.265625 0-.546875.234375-.546875.609375 0 .4375.4375.6875.84375.6875.546875 0 .953125-.59375 1.125-.96875.328125-.625.546875-1.828125.5625-1.90625zm0 0"/></symbol><g clip-path="url(#a)"><path d="m191.99825 661.331844c10.667969 0 21.335938 21.335937 21.335938 42.667968 0 21.332032-10.667969 42.667969-21.335938 42.667969-10.664062 0-21.332031-21.335937-21.332031-42.667969 0-21.332031 10.667969-42.667968 21.332031-42.667968zm0 0" fill="none" stroke="#8b0000" stroke-linejoin="round" stroke-miterlimit="10" stroke-width=".4" transform="matrix(1 0 0 -1 -169.967 747.367)"/></g><g clip-path="url(#b)"><path d="m287.99825 661.331844c10.667969 0 21.335937 21.335937 21.335937 42.667968 0 21.332032-10.667968 42.667969-21.335937 42.667969-10.664063 0-21.332031-21.335937-21.332031-42.667969 0-21.332031 10.667968-42.667968 21.332031-42.667968zm0 0" fill="none" stroke="#008b8b" stroke-linejoin="round" stroke-miterlimit="10" stroke-width=".4" transform="matrix(1 0 0 -1 -169.967 747.367)"/></g><path d="m23.832031 27.367188c0-.996094-.804687-1.800782-1.800781-1.800782-.992188 0-1.796875.804688-1.796875 1.800782 0 .992187.804687 1.800781 1.796875 1.800781.996094 0 1.800781-.808594 1.800781-1.800781" fill-rule="evenodd"/><path d="m23.832031 43.367188c0-.996094-.804687-1.800782-1.800781-1.800782-.992188 0-1.796875.804688-1.796875 1.800782 0 .992187.804687 1.800781 1.796875 1.800781.996094 0 1.800781-.808594 1.800781-1.800781" fill-rule="evenodd"/><path d="m23.832031 59.367188c0-.996094-.804687-1.800782-1.800781-1.800782-.992188 0-1.796875.804688-1.796875 1.800782 0 .992187.804687 1.800781 1.796875 1.800781.996094 0 1.800781-.808594 1.800781-1.800781" fill-rule="evenodd"/><path d="m119.832031 27.367188c0-.996094-.804687-1.800782-1.800781-1.800782-.992188 0-1.796875.804688-1.796875 1.800782 0 .992187.804687 1.800781 1.796875 1.800781.996094 0 1.800781-.808594 1.800781-1.800781" fill-rule="evenodd"/><path d="m119.832031 27.367188c0-.996094-.804687-1.800782-1.800781-1.800782-.992188 0-1.796875.804688-1.796875 1.800782 0 .992187.804687 1.800781 1.796875 1.800781.996094 0 1.800781-.808594 1.800781-1.800781" fill-rule="evenodd"/><path d="m119.832031 43.367188c0-.996094-.804687-1.800782-1.800781-1.800782-.992188 0-1.796875.804688-1.796875 1.800782 0 .992187.804687 1.800781 1.796875 1.800781.996094 0 1.800781-.808594 1.800781-1.800781" fill-rule="evenodd"/><g stroke-linejoin="round" stroke-miterlimit="10" stroke-width=".4" transform="matrix(1 0 0 -1 -169.967 747.367)"><path d="m194.603719 703.097469c30.40625-4.53125 60.195312-4.625 89.371093-.277344" fill="none" stroke="#000"/><path d="m283.974812 702.820125-5.191406.910156.492188-3.292969zm0 0" fill-rule="evenodd" stroke="#000"/><path d="m194.447469 688.33575c42.980469 10 73.109375 19.917969 90.386718 29.757812" fill="none" stroke="#000"/><path d="m284.834187 718.093562-5.167968-1.027343 1.648437-2.894532zm0 0" fill-rule="evenodd" stroke="#000"/><path d="m194.213094 720.988094c30.4375 7.339843 60.300781 7.863281 89.589843 1.570312" fill="none" stroke="#000"/><path d="m283.802937 722.558406-4.539062 2.675781-.699219-3.253906zm0 0" fill-rule="evenodd" stroke="#000"/><path d="m192.115438 698.542781c2.949218-.089844 6.117187 7.214844 6.074218 14.015625-.042968 6.796875-3.300781 13.089844-6.25 13.179688-2.949218.089843-5.585937-6.027344-5.542968-12.828125.042968-6.800782 2.769531-14.28125 5.71875-14.367188zm0 0" fill="none" stroke="#2e8b57"/><path d="m192.24825 681.941219c2.949219-.085938 6.117188 7.21875 6.074219 14.015625-.042969 6.800781-3.300781 13.09375-6.25 13.179687-2.945313.089844-5.585938-6.027344-5.542969-12.824219.042969-6.800781 2.773438-14.28125 5.71875-14.371093zm0 0" fill="none" stroke="#00008b"/></g><use fill="#00008b" x="7.947" xlink:href="#c" y="58.976"/><use fill="#2e8b57" x="7.033" xlink:href="#d" y="38.36"/><use x="64.318" xlink:href="#e" y="13.916"/></svg>

<?xml version="1.0" encoding="UTF-8"?>
<svg xmlns="http://www.w3.org/2000/svg" xmlns:xlink="http://www.w3.org/1999/xlink" width="140.066pt" height="86.734pt" viewBox="0 0 140.066 86.734" version="1.1">
<defs>
<g>
<symbol overflow="visible" id="glyph0-0">
<path style="stroke:none;" d=""/>
</symbol>
<symbol overflow="visible" id="glyph0-1">
<path style="stroke:none;" d="M 1.78125 -1.140625 C 1.390625 -0.484375 1 -0.34375 0.5625 -0.3125 C 0.4375 -0.296875 0.34375 -0.296875 0.34375 -0.109375 C 0.34375 -0.046875 0.40625 0 0.484375 0 C 0.75 0 1.0625 -0.03125 1.328125 -0.03125 C 1.671875 -0.03125 2.015625 0 2.328125 0 C 2.390625 0 2.515625 0 2.515625 -0.1875 C 2.515625 -0.296875 2.4375 -0.3125 2.359375 -0.3125 C 2.140625 -0.328125 1.890625 -0.40625 1.890625 -0.65625 C 1.890625 -0.78125 1.953125 -0.890625 2.03125 -1.03125 L 2.796875 -2.296875 L 5.296875 -2.296875 C 5.3125 -2.09375 5.453125 -0.734375 5.453125 -0.640625 C 5.453125 -0.34375 4.9375 -0.3125 4.734375 -0.3125 C 4.59375 -0.3125 4.5 -0.3125 4.5 -0.109375 C 4.5 0 4.609375 0 4.640625 0 C 5.046875 0 5.46875 -0.03125 5.875 -0.03125 C 6.125 -0.03125 6.765625 0 7.015625 0 C 7.0625 0 7.1875 0 7.1875 -0.203125 C 7.1875 -0.3125 7.09375 -0.3125 6.953125 -0.3125 C 6.34375 -0.3125 6.34375 -0.375 6.3125 -0.671875 L 5.703125 -6.890625 C 5.6875 -7.09375 5.6875 -7.140625 5.515625 -7.140625 C 5.359375 -7.140625 5.3125 -7.0625 5.25 -6.96875 Z M 2.984375 -2.609375 L 4.9375 -5.90625 L 5.265625 -2.609375 Z M 2.984375 -2.609375 "/>
</symbol>
<symbol overflow="visible" id="glyph0-2">
<path style="stroke:none;" d="M 1.59375 -0.78125 C 1.5 -0.390625 1.46875 -0.3125 0.6875 -0.3125 C 0.515625 -0.3125 0.421875 -0.3125 0.421875 -0.109375 C 0.421875 0 0.515625 0 0.6875 0 L 4.25 0 C 5.828125 0 7 -1.171875 7 -2.15625 C 7 -2.875 6.421875 -3.453125 5.453125 -3.5625 C 6.484375 -3.75 7.53125 -4.484375 7.53125 -5.4375 C 7.53125 -6.171875 6.875 -6.8125 5.6875 -6.8125 L 2.328125 -6.8125 C 2.140625 -6.8125 2.046875 -6.8125 2.046875 -6.609375 C 2.046875 -6.5 2.140625 -6.5 2.328125 -6.5 C 2.34375 -6.5 2.53125 -6.5 2.703125 -6.484375 C 2.875 -6.453125 2.96875 -6.453125 2.96875 -6.3125 C 2.96875 -6.28125 2.953125 -6.25 2.9375 -6.125 Z M 3.09375 -3.65625 L 3.71875 -6.125 C 3.8125 -6.46875 3.828125 -6.5 4.25 -6.5 L 5.546875 -6.5 C 6.421875 -6.5 6.625 -5.90625 6.625 -5.46875 C 6.625 -4.59375 5.765625 -3.65625 4.5625 -3.65625 Z M 2.65625 -0.3125 C 2.515625 -0.3125 2.5 -0.3125 2.4375 -0.3125 C 2.328125 -0.328125 2.296875 -0.34375 2.296875 -0.421875 C 2.296875 -0.453125 2.296875 -0.46875 2.359375 -0.640625 L 3.046875 -3.421875 L 4.921875 -3.421875 C 5.875 -3.421875 6.078125 -2.6875 6.078125 -2.265625 C 6.078125 -1.28125 5.1875 -0.3125 4 -0.3125 Z M 2.65625 -0.3125 "/>
</symbol>
<symbol overflow="visible" id="glyph0-3">
<path style="stroke:none;" d="M 3.65625 -3.984375 L 4.515625 -3.984375 C 4.71875 -3.984375 4.8125 -3.984375 4.8125 -4.1875 C 4.8125 -4.296875 4.71875 -4.296875 4.546875 -4.296875 L 3.71875 -4.296875 L 3.921875 -5.4375 C 3.96875 -5.640625 4.109375 -6.34375 4.171875 -6.46875 C 4.25 -6.65625 4.421875 -6.8125 4.640625 -6.8125 C 4.671875 -6.8125 4.9375 -6.8125 5.125 -6.625 C 4.6875 -6.59375 4.578125 -6.234375 4.578125 -6.09375 C 4.578125 -5.859375 4.765625 -5.734375 4.953125 -5.734375 C 5.21875 -5.734375 5.5 -5.96875 5.5 -6.34375 C 5.5 -6.796875 5.046875 -7.03125 4.640625 -7.03125 C 4.296875 -7.03125 3.671875 -6.84375 3.375 -5.859375 C 3.3125 -5.65625 3.28125 -5.546875 3.046875 -4.296875 L 2.359375 -4.296875 C 2.15625 -4.296875 2.046875 -4.296875 2.046875 -4.109375 C 2.046875 -3.984375 2.140625 -3.984375 2.328125 -3.984375 L 2.984375 -3.984375 L 2.25 -0.046875 C 2.0625 0.921875 1.890625 1.828125 1.375 1.828125 C 1.328125 1.828125 1.09375 1.828125 0.890625 1.640625 C 1.359375 1.609375 1.453125 1.25 1.453125 1.109375 C 1.453125 0.875 1.265625 0.75 1.078125 0.75 C 0.8125 0.75 0.53125 0.984375 0.53125 1.359375 C 0.53125 1.796875 0.96875 2.046875 1.375 2.046875 C 1.921875 2.046875 2.328125 1.453125 2.5 1.078125 C 2.828125 0.453125 3.046875 -0.75 3.0625 -0.828125 Z M 3.65625 -3.984375 "/>
</symbol>
</g>
<clipPath id="clip1">
  <path d="M 0 0 L 44 0 L 44 86.734375 L 0 86.734375 Z M 0 0 "/>
</clipPath>
<clipPath id="clip2">
  <path d="M 96 0 L 140 0 L 140 86.734375 L 96 86.734375 Z M 96 0 "/>
</clipPath>
</defs>
<g id="surface1">
<g clip-path="url(#clip1)" clip-rule="nonzero">
<path style="fill:none;stroke-width:0.4;stroke-linecap:butt;stroke-linejoin:round;stroke:rgb(54.499817%,0%,0%);stroke-opacity:1;stroke-miterlimit:10;" d="M 191.99825 661.331844 C 202.666219 661.331844 213.334188 682.667781 213.334188 703.999812 C 213.334188 725.331844 202.666219 746.667781 191.99825 746.667781 C 181.334188 746.667781 170.666219 725.331844 170.666219 703.999812 C 170.666219 682.667781 181.334188 661.331844 191.99825 661.331844 Z M 191.99825 661.331844 " transform="matrix(1,0,0,-1,-169.967,747.367)"/>
</g>
<g clip-path="url(#clip2)" clip-rule="nonzero">
<path style="fill:none;stroke-width:0.4;stroke-linecap:butt;stroke-linejoin:round;stroke:rgb(0%,54.499817%,54.499817%);stroke-opacity:1;stroke-miterlimit:10;" d="M 287.99825 661.331844 C 298.666219 661.331844 309.334187 682.667781 309.334187 703.999812 C 309.334187 725.331844 298.666219 746.667781 287.99825 746.667781 C 277.334187 746.667781 266.666219 725.331844 266.666219 703.999812 C 266.666219 682.667781 277.334187 661.331844 287.99825 661.331844 Z M 287.99825 661.331844 " transform="matrix(1,0,0,-1,-169.967,747.367)"/>
</g>
<path style=" stroke:none;fill-rule:evenodd;fill:rgb(0%,0%,0%);fill-opacity:1;" d="M 23.832031 27.367188 C 23.832031 26.371094 23.027344 25.566406 22.03125 25.566406 C 21.039062 25.566406 20.234375 26.371094 20.234375 27.367188 C 20.234375 28.359375 21.039062 29.167969 22.03125 29.167969 C 23.027344 29.167969 23.832031 28.359375 23.832031 27.367188 "/>
<path style=" stroke:none;fill-rule:evenodd;fill:rgb(0%,0%,0%);fill-opacity:1;" d="M 23.832031 43.367188 C 23.832031 42.371094 23.027344 41.566406 22.03125 41.566406 C 21.039062 41.566406 20.234375 42.371094 20.234375 43.367188 C 20.234375 44.359375 21.039062 45.167969 22.03125 45.167969 C 23.027344 45.167969 23.832031 44.359375 23.832031 43.367188 "/>
<path style=" stroke:none;fill-rule:evenodd;fill:rgb(0%,0%,0%);fill-opacity:1;" d="M 23.832031 59.367188 C 23.832031 58.371094 23.027344 57.566406 22.03125 57.566406 C 21.039062 57.566406 20.234375 58.371094 20.234375 59.367188 C 20.234375 60.359375 21.039062 61.167969 22.03125 61.167969 C 23.027344 61.167969 23.832031 60.359375 23.832031 59.367188 "/>
<path style=" stroke:none;fill-rule:evenodd;fill:rgb(0%,0%,0%);fill-opacity:1;" d="M 119.832031 27.367188 C 119.832031 26.371094 119.027344 25.566406 118.03125 25.566406 C 117.039062 25.566406 116.234375 26.371094 116.234375 27.367188 C 116.234375 28.359375 117.039062 29.167969 118.03125 29.167969 C 119.027344 29.167969 119.832031 28.359375 119.832031 27.367188 "/>
<path style=" stroke:none;fill-rule:evenodd;fill:rgb(0%,0%,0%);fill-opacity:1;" d="M 119.832031 27.367188 C 119.832031 26.371094 119.027344 25.566406 118.03125 25.566406 C 117.039062 25.566406 116.234375 26.371094 116.234375 27.367188 C 116.234375 28.359375 117.039062 29.167969 118.03125 29.167969 C 119.027344 29.167969 119.832031 28.359375 119.832031 27.367188 "/>
<path style=" stroke:none;fill-rule:evenodd;fill:rgb(0%,0%,0%);fill-opacity:1;" d="M 119.832031 43.367188 C 119.832031 42.371094 119.027344 41.566406 118.03125 41.566406 C 117.039062 41.566406 116.234375 42.371094 116.234375 43.367188 C 116.234375 44.359375 117.039062 45.167969 118.03125 45.167969 C 119.027344 45.167969 119.832031 44.359375 119.832031 43.367188 "/>
<path style="fill:none;stroke-width:0.4;stroke-linecap:butt;stroke-linejoin:round;stroke:rgb(0%,0%,0%);stroke-opacity:1;stroke-miterlimit:10;" d="M 194.603719 703.097469 C 225.009969 698.566219 254.799031 698.472469 283.974812 702.820125 " transform="matrix(1,0,0,-1,-169.967,747.367)"/>
<path style="fill-rule:evenodd;fill:rgb(0%,0%,0%);fill-opacity:1;stroke-width:0.4;stroke-linecap:butt;stroke-linejoin:round;stroke:rgb(0%,0%,0%);stroke-opacity:1;stroke-miterlimit:10;" d="M 283.974812 702.820125 L 278.783406 703.730281 L 279.275594 700.437312 Z M 283.974812 702.820125 " transform="matrix(1,0,0,-1,-169.967,747.367)"/>
<path style="fill:none;stroke-width:0.4;stroke-linecap:butt;stroke-linejoin:round;stroke:rgb(0%,0%,0%);stroke-opacity:1;stroke-miterlimit:10;" d="M 194.447469 688.33575 C 237.427938 698.33575 267.556844 708.253719 284.834187 718.093562 " transform="matrix(1,0,0,-1,-169.967,747.367)"/>
<path style="fill-rule:evenodd;fill:rgb(0%,0%,0%);fill-opacity:1;stroke-width:0.4;stroke-linecap:butt;stroke-linejoin:round;stroke:rgb(0%,0%,0%);stroke-opacity:1;stroke-miterlimit:10;" d="M 284.834187 718.093562 L 279.666219 717.066219 L 281.314656 714.171687 Z M 284.834187 718.093562 " transform="matrix(1,0,0,-1,-169.967,747.367)"/>
<path style="fill:none;stroke-width:0.4;stroke-linecap:butt;stroke-linejoin:round;stroke:rgb(0%,0%,0%);stroke-opacity:1;stroke-miterlimit:10;" d="M 194.213094 720.988094 C 224.650594 728.327937 254.513875 728.851375 283.802937 722.558406 " transform="matrix(1,0,0,-1,-169.967,747.367)"/>
<path style="fill-rule:evenodd;fill:rgb(0%,0%,0%);fill-opacity:1;stroke-width:0.4;stroke-linecap:butt;stroke-linejoin:round;stroke:rgb(0%,0%,0%);stroke-opacity:1;stroke-miterlimit:10;" d="M 283.802937 722.558406 L 279.263875 725.234187 L 278.564656 721.980281 Z M 283.802937 722.558406 " transform="matrix(1,0,0,-1,-169.967,747.367)"/>
<path style="fill:none;stroke-width:0.4;stroke-linecap:butt;stroke-linejoin:round;stroke:rgb(17.999268%,54.499817%,34.098816%);stroke-opacity:1;stroke-miterlimit:10;" d="M 192.115438 698.542781 C 195.064656 698.452937 198.232625 705.757625 198.189656 712.558406 C 198.146688 719.355281 194.888875 725.64825 191.939656 725.738094 C 188.990438 725.827937 186.353719 719.71075 186.396688 712.909969 C 186.439656 706.109187 189.166219 698.628719 192.115438 698.542781 Z M 192.115438 698.542781 " transform="matrix(1,0,0,-1,-169.967,747.367)"/>
<path style="fill:none;stroke-width:0.4;stroke-linecap:butt;stroke-linejoin:round;stroke:rgb(0%,0%,54.499817%);stroke-opacity:1;stroke-miterlimit:10;" d="M 192.24825 681.941219 C 195.197469 681.855281 198.365438 689.159969 198.322469 695.956844 C 198.2795 702.757625 195.021688 709.050594 192.072469 709.136531 C 189.127156 709.226375 186.486531 703.109187 186.5295 696.312312 C 186.572469 689.511531 189.302938 682.031062 192.24825 681.941219 Z M 192.24825 681.941219 " transform="matrix(1,0,0,-1,-169.967,747.367)"/>
<g style="fill:rgb(0%,0%,54.499817%);fill-opacity:1;">
  <use xlink:href="#glyph0-1" x="7.947" y="58.976"/>
</g>
<g style="fill:rgb(17.999268%,54.499817%,34.098816%);fill-opacity:1;">
  <use xlink:href="#glyph0-2" x="7.033" y="38.36"/>
</g>
<g style="fill:rgb(0%,0%,0%);fill-opacity:1;">
  <use xlink:href="#glyph0-3" x="64.318" y="13.916"/>
</g>
</g>
</svg>
